X:1
T:Far, Far Away on Judea’s Plains
T:John Menzies Mcfarlane, 1869
T:Far, Far Away on Judea’s Plains
T:Public Domain
T:Public Domain
C:John Menzies Mcfarlane, 1869
Z:Public Domain
%%score ( 1 2 ) ( 3 4 )
L:1/8
M:4/4
K:F
V:1 treble 
V:2 treble 
V:3 bass 
V:4 bass 
V:1
 F2 F>[EG] [FA]2 [FA]>[GB] | [Ac]2 ([Ac]>[GB]) [FA]4 | [EG]2 [EG]>[FA] [GB]2 [FA][Ac] | %3
w: 1.~Far, far a- way on Ju-|plains, Shep- * herds|of old heard the joy- ous|
w: 2.~Sweet are these strains of re-|love, Me- * ssage|of me- rcy from Heav- en|
w: 3.~Lord, with the an- gels we|joice; Help * us|to sing with the heart and|
w: 4.~Hast- en the time when, from|clime, Men * shall|u- nite in the strains sub-|
 ([Bd][Ac])([GB][FA]) ([FA]2 [EG]2) || [CF]2 F>[EG] [FA]4 | [Ec]2 [Ec]>[EB] [FA]4 | %6
w: strains: * * * * *|||
w: above: * Glor- * y *|to God, glor- y|God, Glor- y to|
w: voice: * * * * *|||
w: lime: * * * * *|||
 [Fd]2 [Fd]>[Fd] [Fc]2 F[CF] | (DE [FA]2) [EG]4 | [CF]2 [A,C]2 [B,D]2 [B,E]2 | [CF]2 [CG]2 [CA]4 | %10
w: ||||
w: God in the high- est; Peace|earth, * * good|to men; Peace on|earth, good will|
w: ||||
w: ||||
 (EFG)[Ec] [Fc]3 [GB] | [FA]2 [EG]2 F4 |] %12
w: ||
w: to * * men. * *||
w: ||
w: ||
V:2
 F2 F3/2 x9/2 | x8 | x8 | x8 || x2 F3/2 x9/2 | x8 | x6 F x | B2 x6 | x8 | x8 | c3 x5 | x4 F4 |] %12
w: de- a’s||||||||||||
w: deem- ing||||to||on|will|||||
w: too would~re-||||||||||||
w: ev- ery||||||||||||
V:3
 F,2 C,2 F,2 C,2 | A,,2 C,2 F,4 | C,6 F,2 | B,,4 C,4 || [F,A,]2 [A,C]>[G,C] ([F,C]2 E,D,) | %5
 G,2 G,>G, (F,2 G,A,) | B,,>C, D,>E, [F,A,]2 [B,D][A,C] | ([G,B,]2 [F,C]2) [C,C]4 | %8
 [F,,A,]2 [F,,F,]2 [B,,F,]2 [G,,G,]2 | [A,,F,]2 [C,E,]2 F,4 | %10
 (C,D,E,)[C,G,] ([F,A,][G,B,][A,C])[B,D] | C2 (CB,) [F,A,]4 |] %12
V:4
 F,2 C,2 F,2 C,2 | A,,2 C,2 F,4 | C,6 F,2 | B,,4 C,4 || x8 | C,4 F,2 x2 | B,4 x4 | x8 | x8 | %9
 x4 F,4 | G,3 x5 | C2 C,2 x4 |] %12

